dist/svg/u1F3BD.svg

<?xml version="1.0" encoding="UTF-8"?><svg id="a" xmlns="http://www.w3.org/2000/svg" viewBox="0 0 40 40"><rect x="0" width="40" height="40" fill="none"/><g><path d="M31.9,11.022V4.541c0-.575-.466-1.041-1.041-1.041h-3.727c-.575,0-1.041,.466-1.041,1.041v1.023c0,3.336-2.57,6.244-5.904,6.345-3.45,.104-6.279-2.662-6.279-6.089v-1.278c0-.575-.466-1.041-1.041-1.041h-3.727c-.575,0-1.041,.466-1.041,1.041v6.482c0,2.103-.533,3.957-1.343,5.051-1.031,1.393-1.703,3.016-1.703,4.749v13.596c0,1.15,.932,2.081,2.081,2.081h25.729c1.15,0,2.081-.932,2.081-2.081v-13.596c0-1.733-.672-3.356-1.703-4.749-.81-1.095-1.343-2.949-1.343-5.051Z" fill="#93c9ff"/><path d="M31.9,10.974V4.541c0-.575-.466-1.041-1.041-1.041h-1.856c-1.938,17.525-11.936,30.919-23.949,30.919h0c0,1.149,.932,2.081,2.081,2.081h6.824c8.364-4.009,15.02-13.497,17.941-25.526Z" fill="#4d9dff"/></g></svg>

<svg id="Layer_1" data-name="Layer 1" xmlns="http://www.w3.org/2000/svg" viewBox="0 0 40 40"><defs><style>.cls-1{fill:none;}.cls-2{fill:#93c9ff;}.cls-3{fill:#4d9dff;}</style></defs><rect class="cls-1" width="40" height="40"/><path class="cls-2" d="M31.9,11.022V4.541A1.041,1.041,0,0,0,30.859,3.5H27.133a1.041,1.041,0,0,0-1.041,1.041V5.563a6.261,6.261,0,0,1-5.9,6.345,6.092,6.092,0,0,1-6.279-6.089V4.541A1.041,1.041,0,0,0,12.868,3.5H9.141A1.041,1.041,0,0,0,8.1,4.541v6.481a8.838,8.838,0,0,1-1.343,5.052,8.019,8.019,0,0,0-1.7,4.749v13.6A2.081,2.081,0,0,0,7.135,36.5h25.73a2.081,2.081,0,0,0,2.081-2.081v-13.6a8.019,8.019,0,0,0-1.7-4.749A8.838,8.838,0,0,1,31.9,11.022Z"/><path class="cls-3" d="M31.9,10.974V4.541A1.041,1.041,0,0,0,30.859,3.5H29C27.065,21.025,17.067,34.419,5.054,34.419h0A2.081,2.081,0,0,0,7.135,36.5h6.824C22.323,32.491,28.979,23,31.9,10.974Z"/></svg>
